packages/foundations/assets/icons/functional/images/maps/road_sign_28.svg

<svg width="28" height="28" viewBox="0 0 28 28" fill="none" xmlns="http://www.w3.org/2000/svg">
<g clip-path="url(#clip0_186_109)">
<path fill-rule="evenodd" clip-rule="evenodd" d="M20.1511 1.75C20.7692 1.75 21.3873 1.91858 21.865 2.39621L24.5903 5.12156C25.1241 5.65539 25.377 6.29759 25.377 7C25.377 7.59002 25.1922 8.25171 24.7308 8.71789L22.0054 11.4713C21.544 11.9375 20.9659 12.25 20.3197 12.25H14.0261V24.5H17.498C17.9756 24.5 18.381 24.9014 18.381 25.379C18.381 25.8286 17.9475 26.25 17.498 26.25H8.52924C8.0235 26.25 7.65424 25.8847 7.65424 25.379C7.65424 24.9576 8.07969 24.5 8.52924 24.5H12.256V12.25H5.24799C3.84317 12.25 2.62299 11.1623 2.62299 9.78555V4.36296C2.62299 2.98623 3.84317 1.75 5.24799 1.75H20.1511ZM20.2635 3.5H5.24799C4.77035 3.5 4.39305 3.82913 4.39305 4.25058V9.61698C4.39305 10.0665 4.70211 10.5 5.15166 10.5H20.1511C20.3197 10.5 20.5725 10.4318 20.7411 10.2632L23.3822 7.62213C23.5788 7.42546 23.635 7.20069 23.635 7.00402C23.635 6.80734 23.5943 6.56863 23.4665 6.44209L20.7411 3.74484C20.5999 3.60509 20.432 3.5 20.2635 3.5Z" fill="#1A1C1F"/>
</g>
<defs>
<clipPath id="clip0_186_109">
<rect width="28" height="28" fill="white"/>
</clipPath>
</defs>
</svg>

<svg xmlns="http://www.w3.org/2000/svg" width="28" height="28" fill="none"><g clip-path="url(#a)"><path fill="#1A1C1F" fill-rule="evenodd" d="M20.151 1.75c.618 0 1.236.169 1.714.646l2.725 2.726c.534.533.787 1.176.787 1.878 0 .59-.185 1.252-.646 1.718l-2.726 2.753c-.461.466-1.04.779-1.685.779h-6.294V24.5h3.472c.478 0 .883.401.883.879 0 .45-.433.871-.883.871H8.529c-.505 0-.875-.365-.875-.871 0-.421.426-.879.875-.879h3.727V12.25H5.248c-1.405 0-2.625-1.088-2.625-2.464V4.363c0-1.377 1.22-2.613 2.625-2.613zm.113 1.75H5.248c-.478 0-.855.33-.855.75v5.367c0 .45.31.883.759.883h15a.9.9 0 0 0 .59-.237l2.64-2.64a.85.85 0 0 0 .253-.619c0-.197-.04-.435-.169-.562l-2.725-2.697c-.141-.14-.309-.245-.477-.245" clip-rule="evenodd"/></g><defs><clipPath id="a"><path fill="#fff" d="M0 0h28v28H0z"/></clipPath></defs></svg>
